X: 1
T: Dermot Byrne's
M: 6/8
L: 1/8
R: jig
K: Gmaj
|:(3Bcd B G2 D|GBd gdc|(3Bcd B GED|EAA ABc|
(3Bcd B G2 D|GBd ~g3|agf gdB|A2 G ABc:|
|:d3 dBc|def gdB|~d3 dcB|A2 G ABc|
ded dBc|def ~g3|agf gdB|A2 G ABc:|
